public/assets/images/process/01.svg

<svg width="30" height="30" viewBox="0 0 30 30" fill="none" xmlns="http://www.w3.org/2000/svg">
<g clip-path="url(#clip0_118_6761)">
<path d="M20.294 1.76367C19.0637 1.76367 18.0268 2.60742 17.7313 3.7466L7.79793 7.05772H2.64703C1.18746 7.05778 0 8.24524 0 9.70481V14.9989C0 16.4584 1.18746 17.6459 2.64703 17.6459H2.68183L3.58693 26.109C3.71132 27.2674 5.13491 28.5786 6.81848 28.1551C8.21002 27.8075 9.06866 26.41 8.76157 25.0171L8.56944 22.9371C8.58789 22.9383 8.60623 22.9399 8.62493 22.9399H9.70574C11.1653 22.9399 12.3528 21.7525 12.3528 20.2929V19.1642L17.7313 20.957C18.0267 22.0963 19.0636 22.9399 20.2939 22.9399C21.7535 22.9399 22.9409 21.7525 22.9409 20.2929V4.41076C22.941 2.95113 21.7535 1.76367 20.294 1.76367ZM6.38946 26.4435C5.93847 26.5569 5.47388 26.2983 5.33401 25.8501L4.45663 17.6459H6.30866C7.05889 25.7698 7.00839 25.2757 7.03247 25.3725C7.15042 25.845 6.8626 26.3253 6.38946 26.4435ZM7.05878 15.8812C6.27626 15.8812 3.20947 15.8812 2.64703 15.8812C2.16052 15.8812 1.76466 15.4854 1.76466 14.9989V9.70481C1.76466 9.21831 2.16046 8.82245 2.64703 8.82245H7.05878V15.8812ZM10.5882 20.293C10.5882 20.7795 10.1924 21.1753 9.7058 21.1753H8.62498C8.55045 21.1753 8.47844 21.1856 8.40936 21.203L8.08985 17.7433L10.5882 18.576V20.293ZM17.6469 19.0688L8.8235 16.1276V8.57606L17.6469 5.6349V19.0688ZM21.1763 20.293C21.1763 20.7795 20.7805 21.1753 20.294 21.1753C19.8075 21.1753 19.4116 20.7795 19.4116 20.293V4.41076C19.4116 3.92425 19.8074 3.5284 20.294 3.5284C20.7805 3.5284 21.1763 3.9242 21.1763 4.41076V20.293Z" fill="#0F62FE"/>
<path d="M29.1174 10.5869H25.588C25.1008 10.5869 24.7057 10.982 24.7057 11.4693C24.7057 11.9565 25.1007 12.3516 25.588 12.3516H29.1174C29.6047 12.3516 29.9998 11.9566 29.9998 11.4693C29.9998 10.982 29.6048 10.5869 29.1174 10.5869Z" fill="#0F62FE"/>
<path d="M29.9067 5.78091C29.6888 5.34503 29.1587 5.16837 28.7229 5.38634L25.1935 7.151C24.7576 7.36897 24.581 7.89895 24.7989 8.33483C25.017 8.77094 25.5471 8.94731 25.9828 8.7294L29.5122 6.96473C29.948 6.74677 30.1246 6.21679 29.9067 5.78091Z" fill="#0F62FE"/>
<path d="M29.512 15.9742L25.9826 14.2096C25.5468 13.9916 25.0167 14.1683 24.7988 14.6042C24.5809 15.04 24.7575 15.57 25.1933 15.788L28.7227 17.5526C29.1587 17.7707 29.6887 17.5938 29.9066 17.1581C30.1245 16.7222 29.9479 16.1922 29.512 15.9742Z" fill="#0F62FE"/>
</g>
<defs>
<clipPath id="clip0_118_6761">
<rect width="30" height="30" fill="white"/>
</clipPath>
</defs>
</svg>

<svg xmlns="http://www.w3.org/2000/svg" width="30" height="30" fill="none" viewBox="0 0 30 30"><g fill="#0f62fe" clip-path="url(#a)"><path d="M20.294 1.764c-1.23 0-2.267.843-2.563 1.983l-9.933 3.31H2.647A2.65 2.65 0 0 0 0 9.706V15a2.65 2.65 0 0 0 2.647 2.647h.035l.905 8.463c.124 1.158 1.548 2.47 3.231 2.046a2.65 2.65 0 0 0 1.944-3.138l-.193-2.08.056.003h1.08a2.65 2.65 0 0 0 2.648-2.647v-1.129l5.378 1.793a2.65 2.65 0 0 0 2.563 1.983 2.65 2.65 0 0 0 2.647-2.647V4.41a2.65 2.65 0 0 0-2.647-2.647M6.389 26.444a.88.88 0 0 1-1.055-.594l-.877-8.204h1.852c.75 8.124.7 7.63.723 7.726a.884.884 0 0 1-.643 1.072m.67-10.563H2.647A.883.883 0 0 1 1.765 15V9.705c0-.487.395-.883.882-.883h4.412zm3.53 4.412a.883.883 0 0 1-.883.882H8.625a1 1 0 0 0-.216.028l-.32-3.46 2.5.833zm7.058-1.224-8.823-2.941V8.576l8.823-2.941zm3.53 1.224a.883.883 0 0 1-1.765 0V4.411a.883.883 0 0 1 1.764 0zm7.94-9.706h-3.529a.882.882 0 0 0 0 1.765h3.53a.882.882 0 1 0 0-1.765m.789-4.807a.88.88 0 0 0-1.184-.394l-3.53 1.765a.882.882 0 1 0 .79 1.578l3.53-1.764a.88.88 0 0 0 .394-1.184m-.395 10.193-3.53-1.764a.882.882 0 1 0-.789 1.578l3.53 1.765a.882.882 0 1 0 .789-1.579"/></g><defs><clipPath id="a"><path fill="#fff" d="M0 0h30v30H0z"/></clipPath></defs></svg>
